assets/images/ico_help3.svg

<svg width="77" height="101" viewBox="0 0 77 101" fill="none" xmlns="http://www.w3.org/2000/svg">
<path d="M49.0522 43.9085C49.6837 42.7506 49.1574 41.277 47.9995 40.7507C46.8417 40.1191 45.368 40.6454 44.8417 41.8033C43.6838 44.2243 41.1575 45.698 38.5259 45.698C35.7891 45.698 33.3681 44.2243 32.2102 41.8033C31.5786 40.6454 30.2102 40.1191 29.0523 40.7507C27.8944 41.3822 27.3681 42.7506 27.9997 43.9085C29.9997 47.9085 34.1049 50.5401 38.6312 50.5401C42.9469 50.5401 47.0522 47.9085 49.0522 43.9085Z" fill="black"/>
<path d="M30.421 32.1183C31.4736 32.1183 32.421 32.8551 32.6315 33.8025C32.9473 34.7498 33.7894 35.3814 34.7367 35.3814C34.9473 35.3814 35.1578 35.3814 35.3683 35.2762C36.5262 34.9604 37.1578 33.6972 36.842 32.5393C35.9999 29.6973 33.3683 27.6973 30.421 27.6973C27.4736 27.6973 24.7368 29.6973 24 32.5393C23.6842 33.6972 24.3157 34.8551 25.4736 35.2762C26.6315 35.5919 27.7894 34.9604 28.2105 33.8025C28.421 32.7499 29.3683 32.1183 30.421 32.1183Z" fill="black"/>
<path d="M41.4727 35.2762C42.6305 35.5919 43.7884 34.9604 44.2095 33.8025C44.5253 32.8551 45.3674 32.1183 46.42 32.1183C47.4726 32.1183 48.42 32.8551 48.6305 33.8025C48.9463 34.7498 49.7884 35.3814 50.7358 35.3814C50.9463 35.3814 51.1568 35.3814 51.3673 35.2762C52.5252 34.9604 53.1568 33.6972 52.841 32.5393C51.9989 29.6973 49.3673 27.6973 46.42 27.6973C43.4726 27.6973 40.7358 29.6973 39.999 32.5393C39.6832 33.8025 40.3148 34.9604 41.4727 35.2762Z" fill="black"/>
<path d="M73.3679 75.8028C69.3679 69.3818 62.3154 65.5923 54.7365 65.5923H51.7891V59.3818C58.7364 55.5924 63.4732 48.3293 63.4732 39.803V31.9083C64.1048 31.1715 64.5259 30.2241 64.5259 29.1715C64.3153 24.4347 63.4732 19.5926 62.9469 16.4348C64.2101 13.0664 64.5259 7.0664 56.3154 0.540128C55.368 -0.196709 53.8944 -0.196709 53.0523 0.645391C47.1576 6.11904 35.9997 4.75063 26.6314 4.32958C14.1052 3.698 13.0525 10.3295 14.1052 15.3821C13.4736 18.4347 12.5262 23.8031 12.2104 29.2768C12.2104 30.3294 12.5262 31.2768 13.2631 32.0136V39.9083C13.2631 48.3293 17.9999 55.6976 24.9472 59.4871V65.6976H21.9998C14.421 65.6976 7.47363 69.5923 3.3684 75.908C1.15789 79.4869 0 83.6974 0 87.9079V96.4342C0 98.4342 1.57894 100.013 3.57892 100.013H73.3679C75.3679 100.013 76.9468 98.4342 76.9468 96.4342V87.9079C76.8416 83.6974 75.6837 79.487 73.3679 75.8028ZM18.1051 39.9083V32.4346C19.0525 31.8031 19.6841 30.7504 19.6841 29.4873C19.6841 25.5926 20.2104 22.54 20.9472 20.1189C24.2104 21.5926 30.6314 22.6452 38.105 22.6452C45.9997 22.6452 52.7365 21.4874 55.8943 19.8032C56.6312 22.3295 57.1575 25.4873 57.1575 29.4873C57.1575 30.7504 57.7891 31.8031 58.7364 32.4346V39.9083C58.7364 49.4872 50.947 57.2766 41.3681 57.2766H35.4734C25.8946 57.2766 18.1051 49.4872 18.1051 39.9083ZM35.4734 62.0134H41.3681C43.3681 62.0134 45.2628 61.6976 47.0523 61.2766V69.3818C41.9997 73.3817 34.8419 73.3817 29.7893 69.3818V61.2766C31.5787 61.8029 33.4734 62.0134 35.4734 62.0134Z" fill="black"/>
</svg>

<svg width="77" height="101" fill="none" xmlns="http://www.w3.org/2000/svg"><path d="M49.052 43.908c.632-1.157.105-2.631-1.053-3.157-1.157-.632-2.631-.106-3.157 1.052-1.158 2.421-3.684 3.895-6.316 3.895-2.737 0-5.158-1.474-6.316-3.895-.631-1.158-2-1.684-3.158-1.052-1.158.631-1.684 2-1.052 3.157 2 4 6.105 6.632 10.631 6.632 4.316 0 8.421-2.632 10.421-6.632zm-18.631-11.79c1.053 0 2 .737 2.21 1.684.316.948 1.158 1.58 2.106 1.58.21 0 .42 0 .631-.106 1.158-.316 1.79-1.579 1.474-2.737-.842-2.842-3.474-4.842-6.421-4.842s-5.684 2-6.421 4.842c-.316 1.158.316 2.316 1.474 2.737 1.157.316 2.315-.316 2.736-1.474.211-1.052 1.158-1.684 2.211-1.684zm11.052 3.158c1.157.316 2.315-.316 2.736-1.474.316-.947 1.158-1.684 2.211-1.684s2 .737 2.21 1.684c.316.948 1.158 1.58 2.106 1.58.21 0 .42 0 .631-.106 1.158-.316 1.79-1.579 1.474-2.737-.842-2.842-3.474-4.842-6.421-4.842s-5.684 2-6.421 4.842c-.316 1.264.316 2.421 1.474 2.737z" fill="#000"/><path d="M73.368 75.803c-4-6.421-11.053-10.21-18.631-10.21h-2.948v-6.211c6.947-3.79 11.684-11.053 11.684-19.579v-7.895c.632-.736 1.053-1.684 1.053-2.736-.21-4.737-1.053-9.58-1.58-12.737 1.264-3.369 1.58-9.369-6.63-15.895-.948-.737-2.422-.737-3.264.105C47.158 6.12 36 4.751 26.632 4.33c-12.527-.632-13.58 6-12.527 11.052-.631 3.053-1.579 8.421-1.895 13.895 0 1.052.316 2 1.053 2.737v7.894c0 8.421 4.737 15.79 11.684 19.58v6.21H22c-7.579 0-14.526 3.894-18.632 10.21-2.21 3.579-3.368 7.79-3.368 12v8.526c0 2 1.579 3.579 3.579 3.579h69.789c2 0 3.579-1.579 3.579-3.579v-8.526c-.105-4.21-1.263-8.421-3.58-12.105zM18.105 39.908v-7.473a3.499 3.499 0 001.58-2.948c0-3.894.525-6.947 1.262-9.368 3.263 1.474 9.684 2.526 17.158 2.526 7.895 0 14.632-1.158 17.79-2.842.736 2.526 1.262 5.684 1.262 9.684a3.5 3.5 0 001.58 2.948v7.473c0 9.58-7.79 17.369-17.369 17.369h-5.895c-9.578 0-17.368-7.79-17.368-17.369zm17.368 22.105h5.895c2 0 3.895-.315 5.684-.736v8.105c-5.052 4-12.21 4-17.263 0v-8.105c1.79.526 3.684.736 5.684.736z" fill="#000"/></svg>
